public/static/images/greenreality/greenreality-white.svg

<svg width="425" height="83" viewBox="0 0 425 83" fill="none" xmlns="http://www.w3.org/2000/svg">
<g clip-path="url(#clip0)">
<path d="M48.9025 31.2181V60.6691C42.8142 63.6142 35.744 65.7739 27.4954 65.7739C14.9261 65.7739 0 60.4728 0 35.5376C0 10.6024 14.9261 5.30121 27.4954 5.30121C34.5656 5.30121 41.0467 7.06827 46.9385 9.22801V19.045C41.4395 16.4926 35.1548 14.7255 28.4774 14.7255C19.2468 14.7255 10.6054 17.278 10.6054 35.3412C10.6054 53.6009 19.2468 56.1533 28.4774 56.1533C32.2089 56.1533 35.744 55.5643 38.8863 54.5826V40.4461H24.9422V31.0218H48.9025V31.2181Z" fill="white"/>
<path d="M77.1834 20.6157V29.6474C71.2916 29.6474 67.3637 30.6291 65.7925 31.2181V64.9886H55.1871V25.3279C55.3835 25.3279 64.8105 20.8121 77.1834 20.6157Z" fill="white"/>
<path d="M90.1456 39.857H107.821C107.232 34.3595 104.482 29.0583 98.9834 29.0583C93.6807 29.0583 90.7347 32.0034 90.1456 39.857ZM116.07 53.2082V61.6508C111.945 63.8105 106.643 65.5776 99.5725 65.5776C90.9311 65.5776 79.1474 62.0435 79.1474 43.5875C79.1474 30.4327 84.4501 20.4194 98.787 20.4194C112.535 20.4194 118.427 30.6291 118.427 41.6241C118.427 43.5875 118.427 45.3546 118.23 47.1216H90.1456C90.7347 55.5642 96.2338 56.7423 101.34 56.7423C107.428 56.7423 112.338 54.9752 116.07 53.2082Z" fill="white"/>
<path d="M133.353 39.857H151.028C150.439 34.3595 147.689 29.0583 142.19 29.0583C136.888 29.0583 133.942 32.0034 133.353 39.857ZM159.277 53.2082V61.6508C155.152 63.8105 149.85 65.5776 142.78 65.5776C134.138 65.5776 122.354 62.0435 122.354 43.5875C122.354 30.4327 127.657 20.4194 141.994 20.4194C155.742 20.4194 161.634 30.6291 161.634 41.6241C161.634 43.5875 161.634 45.3546 161.437 47.1216H133.353C133.942 55.5642 139.441 56.7423 144.547 56.7423C150.635 56.7423 155.545 54.9752 159.277 53.2082Z" fill="white"/>
<path d="M206.215 38.679V64.9886H195.806V37.8936C195.806 33.9668 195.021 29.8437 185.397 29.8437C182.451 29.8437 179.702 30.2364 177.149 30.6291V64.9886H166.936V25.5242C167.329 25.3279 175.97 20.6157 186.969 20.6157C199.145 20.6157 206.215 27.2913 206.215 38.679Z" fill="white"/>
<path d="M217.803 21.5974H220.552L220.945 27.684H221.338C225.462 25.7206 228.801 24.3462 231.55 23.1682C234.3 21.9901 236.657 21.2048 239.013 21.0084H240.192V24.5425H239.21C236.657 24.7389 233.907 25.5242 230.961 26.8986C228.015 28.273 224.677 29.6474 221.338 31.2181V65.3813H217.999V21.5974H217.803Z" fill="white"/>
<path d="M260.617 23.9535C255.511 23.9535 251.779 25.5242 249.226 28.4693C246.673 31.4144 245.298 35.9303 244.905 42.0168H273.186C272.99 38.8754 272.793 36.1266 272.204 33.7705C271.615 31.4144 271.026 29.6474 270.044 28.0767C269.062 26.7023 267.687 25.5242 266.312 24.9352C264.741 24.3462 262.777 23.9535 260.617 23.9535ZM261.402 65.7739C254.921 65.7739 249.815 64.0069 246.476 60.2764C243.138 56.546 241.37 51.2448 241.37 44.1765C241.37 36.5193 242.941 30.8254 246.28 26.8986C249.619 22.9718 254.332 21.0084 260.617 21.0084C265.723 21.0084 269.651 22.5791 272.401 25.9169C275.15 29.2547 276.525 33.9669 276.525 40.4461C276.525 41.6241 276.525 42.6058 276.525 43.3912C276.525 44.1765 276.329 44.7656 276.329 45.1582H244.905C245.298 56.9386 250.797 62.6325 261.992 62.6325C263.956 62.6325 265.92 62.4362 268.08 62.0435C270.044 61.6508 272.401 61.0618 274.954 60.2764L275.347 63.2215C273.186 64.0069 271.026 64.5959 268.473 64.9886C265.723 65.5776 263.563 65.7739 261.402 65.7739Z" fill="white"/>
<path d="M294.201 62.2398C296.557 62.2398 299.11 61.6508 301.86 60.6691C304.61 59.6874 307.555 58.1167 310.894 56.1533V42.8022L300.092 43.7839C297.343 43.9802 295.183 44.3729 293.415 44.9619C291.647 45.3546 290.076 46.1399 288.898 46.9253C287.72 47.7107 286.934 48.8887 286.541 50.0668C286.148 51.2448 285.756 52.8155 285.756 54.5826C285.559 59.6874 288.505 62.2398 294.201 62.2398ZM293.611 65.3813C285.952 65.3813 282.024 61.8471 282.024 54.5826C282.024 50.4594 283.399 47.318 285.952 45.1582C288.701 42.9985 293.022 41.8205 298.914 41.0351L310.501 40.0534V35.7339C310.501 33.5742 310.305 31.8071 309.912 30.2364C309.519 28.6657 308.93 27.4876 307.948 26.7023C306.966 25.7206 305.788 25.1316 304.217 24.7389C302.646 24.3462 300.682 24.1499 298.521 24.1499C296.361 24.1499 294.397 24.3462 292.237 24.5425C290.273 24.7389 287.72 25.1316 284.97 25.7206L284.577 22.5791C287.523 21.9901 290.076 21.5974 292.237 21.4011C294.397 21.2048 296.557 21.0084 298.718 21.0084C304.02 21.0084 307.948 22.1865 310.305 24.3462C312.662 26.5059 314.036 30.2364 314.036 35.1449V64.7923H311.287L310.894 59.0984H310.305C303.824 63.4179 298.325 65.3813 293.611 65.3813Z" fill="white"/>
<path d="M327.981 0H324.642V64.9886H327.981V0Z" fill="white"/>
<path d="M338.782 21.5974H342.121V64.9885H338.782V21.5974ZM340.354 11.1914C338.586 11.1914 337.8 10.406 337.8 8.63896C337.8 6.8719 338.586 5.8902 340.354 5.8902C342.121 5.8902 343.103 6.8719 343.103 8.63896C343.103 10.406 342.121 11.1914 340.354 11.1914Z" fill="white"/>
<path d="M371.58 65.5776C364.117 65.5776 360.386 61.8471 360.386 54.1898V24.7388H349.977V21.5974H360.386L360.779 11.7804L363.528 11.3877V21.5974H378.062V24.7388H363.725V53.4045C363.725 59.491 366.474 62.4361 372.17 62.4361C374.134 62.4361 376.49 62.0434 378.847 61.4544V64.5959C376.098 65.3812 373.544 65.5776 371.58 65.5776Z" fill="white"/>
<path d="M394.755 81.8738V81.2848L402.022 64.7922L383.561 22.1864V21.5974H387.096L401.825 55.9569L403.789 60.8654H404.182L406.146 55.9569L421.661 21.5974H425V22.1864L397.505 82.8555L394.755 81.8738Z" fill="white"/>
</g>
<defs>
<clipPath id="clip0">
<rect width="425" height="82.8555" fill="white"/>
</clipPath>
</defs>
</svg>

<svg viewBox="0 0 425 83" xmlns="http://www.w3.org/2000/svg">
  <g clip-path="url(#greenreality-white__clip0)" fill="#fff">
    <path d="M48.903 31.218V60.67c-6.089 2.945-13.159 5.105-21.408 5.105C14.926 65.774 0 60.473 0 35.538 0 10.602 14.926 5.3 27.495 5.3c7.07 0 13.552 1.767 19.443 3.927v9.817c-5.498-2.552-11.783-4.32-18.46-4.32-9.231 0-17.873 2.553-17.873 20.616 0 18.26 8.642 20.812 17.872 20.812 3.732 0 7.267-.589 10.41-1.57V40.446H24.941v-9.424h23.96v.196zm28.28-10.602v9.031c-5.891 0-9.82.982-11.39 1.571v33.77H55.187v-39.66c.197 0 9.624-4.516 21.996-4.712zm12.963 19.241h17.675c-.589-5.498-3.339-10.799-8.838-10.799-5.302 0-8.248 2.945-8.837 10.799zm25.924 13.351v8.443c-4.125 2.16-9.427 3.927-16.497 3.927-8.642 0-20.426-3.535-20.426-21.99 0-13.155 5.303-23.169 19.64-23.169 13.748 0 19.64 10.21 19.64 21.205 0 1.963 0 3.73-.197 5.498H90.146c.589 8.442 6.088 9.62 11.194 9.62 6.088 0 10.998-1.767 14.73-3.534zm17.283-13.351h17.675c-.589-5.498-3.339-10.799-8.838-10.799-5.302 0-8.248 2.945-8.837 10.799zm25.924 13.351v8.443c-4.125 2.16-9.427 3.927-16.497 3.927-8.642 0-20.426-3.535-20.426-21.99 0-13.155 5.303-23.169 19.64-23.169 13.748 0 19.64 10.21 19.64 21.205 0 1.963 0 3.73-.197 5.498h-28.084c.589 8.442 6.088 9.62 11.194 9.62 6.088 0 10.998-1.767 14.73-3.534zm46.938-14.529v26.31h-10.409V37.894c0-3.927-.785-8.05-10.409-8.05-2.946 0-5.695.392-8.248.785v34.36h-10.213V25.524c.393-.196 9.034-4.908 20.033-4.908 12.176 0 19.246 6.675 19.246 18.063zm11.588-17.082h2.749l.393 6.087h.393c4.124-1.963 7.463-3.338 10.212-4.516 2.75-1.178 5.107-1.963 7.463-2.16h1.179v3.535h-.982c-2.553.196-5.303.981-8.249 2.356-2.946 1.374-6.284 2.748-9.623 4.32V65.38h-3.339V21.597h-.196zm42.814 2.356c-5.106 0-8.838 1.571-11.391 4.516-2.553 2.945-3.928 7.461-4.321 13.548h28.281c-.196-3.142-.393-5.89-.982-8.247-.589-2.356-1.178-4.123-2.16-5.693-.982-1.375-2.357-2.553-3.732-3.142-1.571-.589-3.535-.982-5.695-.982zm.785 41.82c-6.481 0-11.587-1.766-14.926-5.497-3.338-3.73-5.106-9.031-5.106-16.1 0-7.657 1.571-13.35 4.91-17.277 3.339-3.927 8.052-5.89 14.337-5.89 5.106 0 9.034 1.57 11.784 4.908 2.749 3.338 4.124 8.05 4.124 14.53v2.944c0 .785-.196 1.375-.196 1.767h-31.424c.393 11.78 5.892 17.474 17.087 17.474 1.964 0 3.928-.196 6.088-.588a71.481 71.481 0 006.874-1.768l.393 2.945a35.192 35.192 0 01-6.874 1.768c-2.75.589-4.91.785-7.071.785zm32.799-3.533c2.356 0 4.909-.59 7.659-1.57 2.75-.983 5.695-2.553 9.034-4.517v-13.35l-10.802.98c-2.749.197-4.909.59-6.677 1.179-1.768.393-3.339 1.178-4.517 1.963-1.178.786-1.964 1.964-2.357 3.142-.393 1.178-.785 2.748-.785 4.516-.197 5.104 2.749 7.657 8.445 7.657zm-.59 3.141c-7.659 0-11.587-3.534-11.587-10.798 0-4.124 1.375-7.265 3.928-9.425 2.749-2.16 7.07-3.337 12.962-4.123l11.587-.982v-4.32c0-2.159-.196-3.926-.589-5.497-.393-1.57-.982-2.748-1.964-3.534-.982-.981-2.16-1.57-3.731-1.963-1.571-.393-3.535-.59-5.696-.59-2.16 0-4.124.197-6.284.393-1.964.197-4.517.59-7.267 1.179l-.393-3.142c2.946-.589 5.499-.982 7.66-1.178 2.16-.196 4.32-.393 6.481-.393 5.302 0 9.23 1.178 11.587 3.338 2.357 2.16 3.731 5.89 3.731 10.799v29.647h-2.749l-.393-5.694h-.589c-6.481 4.32-11.98 6.283-16.694 6.283zM327.981 0h-3.339v64.989h3.339V0zm10.801 21.597h3.339V64.99h-3.339V21.596zm1.572-10.406c-1.768 0-2.554-.785-2.554-2.552s.786-2.749 2.554-2.749c1.767 0 2.749.982 2.749 2.749 0 1.767-.982 2.552-2.749 2.552zm31.226 54.387c-7.463 0-11.194-3.73-11.194-11.388V24.739h-10.409v-3.142h10.409l.393-9.817 2.749-.392v10.21h14.534v3.14h-14.337v28.666c0 6.087 2.749 9.032 8.445 9.032 1.964 0 4.32-.393 6.677-.982v3.142c-2.749.785-5.303.982-7.267.982zm23.175 16.296v-.59l7.267-16.492-18.461-42.606v-.589h3.535l14.729 34.36 1.964 4.908h.393l1.964-4.908 15.515-34.36H425v.59l-27.495 60.669-2.75-.982z"/>
  </g>
  <defs>
    <clipPath id="greenreality-white__clip0">
      <path fill="#fff" d="M0 0h425v82.856H0z"/>
    </clipPath>
  </defs>
</svg>
